X: 08036
T: ERIC'S TUNE
C: Bob McQuillen 7 Nov 90
B: Bob's Note Book 8 #36
%R: reel, hornpipe
Z: 2021 John Chambers <jc:trillian.mit.edu>
M: C
L: 1/8
K: D
AG \
| FDFA BAFA | d2A2 A2AG | FABA dBAF | G2E2 E2AG |\
| FDFA BAFA | dAdf a2ag | fdBd Aceg | f2d2 d2 :|
|: de \
| fdBd AFDF | ABdc d2ef | gfed cBAf | gagf e2fg |\
| afdA dfaf | gage cAde | fdfa gecd | e2d2 d2 :|
%%begintext align
%% Eric Smiley used
%% to come to the Peterborough dance with his sister
%% Nisa when they lived in Concord, but now they've
%% moved to Vermont and I don't get to see them very
%% much - they were a real cute pair of kids and I will
%% miss them a lot - Nisa has a jig in Book 7.
%%endtext

%%sep 1 1 500

%%sep 1 1 500

